X:0993
T:A Do.
M:6/8
L:1/8
Q:3/8=120
I: :: :|
Z:Jack Campin * www.campin.me.uk * 2009
K:A Mixolydian
Bcd dAd|dAd f2d|cee d2e|BBB c2A|dAd dAd|ddd fed|B2B cec|e3 A3:|
d2d fga|BcB c2B|ABA ABA|BcB c2A|d2d fga|BcB c2A|Bcd edc|e3 A3:|

